www/assets/icons/filter_list_off.svg

<svg width="24" height="24" viewBox="0 0 24 24" xmlns="http://www.w3.org/2000/svg" fill='currentColor'><path d="M11.545 7.29498H21.715V5.29498H9.54498L11.545 7.29498ZM16.545 12.295H18.715V10.295H14.545L16.545 12.295ZM14.715 16.125V17.295H10.715V15.295H13.885L10.885 12.295H6.71498V10.295H8.88498L5.88498 7.29498H3.71498V5.29498H3.88498L2.10498 3.51498L3.51498 2.10498L21.895 20.485L20.485 21.895L14.715 16.125Z"/></svg>

<svg xmlns="http://www.w3.org/2000/svg" width="24" height="24" viewBox="0 0 24 24" fill='currentColor'><path d="M11.545 7.295h10.17v-2H9.545zm5 5h2.17v-2h-4.17zm-1.83 3.83v1.17h-4v-2h3.17l-3-3h-4.17v-2h2.17l-3-3h-2.17v-2h.17l-1.78-1.78 1.41-1.41 18.38 18.38-1.41 1.41z"/></svg>
